icons/media/go-backward-15-24.svg

<svg width="24" height="24" viewBox="0 0 24 24" fill="none" xmlns="http://www.w3.org/2000/svg">
<path d="M13.589 0.580996C13.3369 0.453244 13.0344 0.478064 12.8065 0.6452L9.05648 3.3952C8.86382 3.53648 8.75 3.7611 8.75 4C8.75 4.23891 8.86382 4.46353 9.05648 4.60481L12.8065 7.35481C13.0344 7.52194 13.3369 7.54676 13.589 7.41901C13.8411 7.29126 14 7.03263 14 6.75V4.73663C17.7294 5.63603 20.5 8.99446 20.5 13C20.5 17.6944 16.6944 21.5 12 21.5C7.30558 21.5 3.5 17.6944 3.5 13C3.5 10.6526 4.45057 8.52861 5.98959 6.98959C6.28249 6.6967 6.28249 6.22183 5.98959 5.92893C5.6967 5.63604 5.22182 5.63604 4.92893 5.92893C3.12011 7.73776 2 10.2388 2 13C2 18.5228 6.47715 23 12 23C17.5228 23 22 18.5228 22 13C22 8.16208 18.5645 4.12658 14 3.20004V1.25C14 0.967376 13.8411 0.708748 13.589 0.580996Z" fill="black"/>
<path fill-rule="evenodd" clip-rule="evenodd" d="M11.589 9.75C11.589 9.33579 11.9248 9 12.339 9H16.5161C16.9303 9 17.2661 9.33579 17.2661 9.75C17.2661 10.1642 16.9303 10.5 16.5161 10.5H13.089V12.1649C13.4434 12.0548 13.8354 12 14.2661 12C15.0296 12 15.8276 12.231 16.4508 12.7297C17.0924 13.2433 17.5161 14.0185 17.5161 15C17.5161 16.9547 15.8735 18.25 14.2661 18.25C12.7541 18.25 11.7753 17.2331 11.3283 16.3338C11.144 15.9628 11.2953 15.5127 11.6662 15.3284C12.0371 15.144 12.4873 15.2953 12.6716 15.6662C12.961 16.2486 13.5112 16.75 14.2661 16.75C15.144 16.75 16.0161 16.0306 16.0161 15C16.0161 14.4888 15.8111 14.1391 15.5134 13.9008C15.1972 13.6477 14.7452 13.5 14.2661 13.5C13.7736 13.5 13.4483 13.6006 13.2219 13.7334C12.8774 13.9355 12.4894 13.9073 12.206 13.7784C11.9179 13.6474 11.589 13.334 11.589 12.8458V9.75Z" fill="black"/>
<path d="M9.75001 9.75C9.75001 9.48426 9.60939 9.23836 9.38036 9.1036C9.15133 8.96883 8.86808 8.96533 8.63578 9.09438L6.38578 10.3444C6.02369 10.5455 5.89324 11.0021 6.0944 11.3642C6.29556 11.7263 6.75216 11.8568 7.11425 11.6556L8.25001 11.0246V17.25C8.25001 17.6642 8.5858 18 9.00001 18C9.41423 18 9.75001 17.6642 9.75001 17.25V9.75Z" fill="black"/>
</svg>

<svg xmlns="http://www.w3.org/2000/svg" width="24" height="24"><path d="M13.589.581a.75.75 0 00-.783.064l-3.75 2.75a.75.75 0 000 1.21l3.75 2.75A.75.75 0 0014 6.75V4.737A8.5 8.5 0 115.99 6.99a.75.75 0 10-1.061-1.061A9.971 9.971 0 002 13c0 5.523 4.477 10 10 10s10-4.477 10-10c0-4.838-3.436-8.873-8-9.8V1.25a.75.75 0 00-.411-.669z"/><path fill-rule="evenodd" d="M11.589 9.75a.75.75 0 01.75-.75h4.177a.75.75 0 010 1.5H13.09v1.665c.354-.11.746-.165 1.177-.165.764 0 1.562.231 2.185.73.641.513 1.065 1.288 1.065 2.27 0 1.955-1.642 3.25-3.25 3.25-1.512 0-2.49-1.017-2.938-1.916a.75.75 0 011.344-.668c.289.583.84 1.084 1.594 1.084.878 0 1.75-.72 1.75-1.75 0-.511-.205-.86-.503-1.1-.316-.252-.768-.4-1.247-.4-.492 0-.818.1-1.044.233a1.11 1.11 0 01-1.016.045c-.288-.13-.617-.444-.617-.932V9.75z"/><path d="M9.75 9.75a.75.75 0 00-1.114-.656l-2.25 1.25a.75.75 0 10.728 1.312l1.136-.631v6.225a.75.75 0 001.5 0v-7.5z"/></svg>
